package/converter/svg/duotone/square-dashed.svg

<svg xmlns="http://www.w3.org/2000/svg" viewBox="0 0 448 512"><!-- Font Awesome Pro 6.0.0-alpha2 by @fontawesome - https://fontawesome.com License - https://fontawesome.com/license (Commercial License) --><defs><style>.fa-secondary{opacity:.4}</style></defs><path d="M0 320H64V192H0V320ZM160 480H288V416H160V480ZM160 96H288V32H160V96ZM384 192V320H448V192H384Z" class="fa-secondary"/><path d="M64 392V352H0V392C0 440.531 39.469 480 88 480H128V416H88C74.781 416 64 405.234 64 392ZM0 120V160H64V120C64 106.766 74.781 96 88 96H128V32H88C39.469 32 0 71.469 0 120ZM360 32H320V96H360C373.219 96 384 106.766 384 120V160H448V120C448 71.469 408.531 32 360 32ZM384 392C384 405.234 373.219 416 360 416H320V480H360C408.531 480 448 440.531 448 392V352H384V392Z" class="fa-primary"/></svg>

<svg xmlns="http://www.w3.org/2000/svg" viewBox="0 0 448 512"><!--! Font Awesome Pro 6.6.0 by @fontawesome - https://fontawesome.com License - https://fontawesome.com/license (Commercial License) Copyright 2024 Fonticons, Inc. --><defs><style>.fa-secondary{opacity:.4}</style></defs><path class="fa-secondary" d="M0 128l0 32 64 0 0-32c0-17.7 14.3-32 32-32l32 0 0-64L96 32C43 32 0 75 0 128zM0 352l0 32c0 53 43 96 96 96l32 0 0-64-32 0c-17.7 0-32-14.3-32-32l0-32L0 352zM320 32l0 64 32 0c17.7 0 32 14.3 32 32l0 32 64 0 0-32c0-53-43-96-96-96l-32 0zm0 384l0 64 32 0c53 0 96-43 96-96l0-32-64 0 0 32c0 17.7-14.3 32-32 32l-32 0z"/><path class="fa-primary" d="M0 192L0 320l64 0 0-128L0 192zm384 0l0 128 64 0 0-128-64 0zM160 480l128 0 0-64-128 0 0 64zm0-384l128 0 0-64L160 32l0 64z"/></svg>
